symbols/web/screen_rotation/materialsymbolsoutlined/screen_rotation_wght600gradN25fill1_20px.svg

<svg xmlns="http://www.w3.org/2000/svg" height="20" width="20"><path d="M10.062 15.812 4.167 9.938q-.334-.334-.49-.719-.156-.386-.156-.844 0-.458.156-.833.156-.375.49-.73l2.666-2.666q.334-.313.709-.479.375-.167.833-.167.479 0 .854.167.375.166.729.479l5.875 5.896q.313.333.479.708.167.375.167.833 0 .479-.167.865-.166.385-.479.698l-2.666 2.666q-.334.334-.719.49-.386.156-.865.156-.437 0-.823-.156-.385-.156-.698-.49ZM10 19.771q-2 0-3.781-.771-1.781-.771-3.115-2.104Q1.771 15.562 1 13.781.229 12 .229 10h1.813q0 1.333.448 2.594.448 1.26 1.218 2.26.771 1 1.844 1.719 1.073.719 2.302 1.052l-1.75-1.771 1.292-1.292 4.958 4.959q-.562.125-1.156.187-.594.063-1.198.063ZM17.958 10q0-1.354-.448-2.604t-1.218-2.25q-.771-1-1.844-1.729-1.073-.729-2.302-1.063l1.771 1.792-1.292 1.292L7.667.479Q8.188.333 8.812.281 9.438.229 10 .229q2.021 0 3.802.761 1.781.76 3.115 2.093 1.333 1.334 2.093 3.115.761 1.781.761 3.802Z"/></svg>

<svg xmlns="http://www.w3.org/2000/svg" height="20" width="20"><path d="M10.062 15.812 4.167 9.938Q3.833 9.604 3.677 9.219Q3.521 8.833 3.521 8.375Q3.521 7.917 3.677 7.542Q3.833 7.167 4.167 6.812L6.833 4.146Q7.167 3.833 7.542 3.667Q7.917 3.5 8.375 3.5Q8.854 3.5 9.229 3.667Q9.604 3.833 9.958 4.146L15.833 10.042Q16.146 10.375 16.312 10.75Q16.479 11.125 16.479 11.583Q16.479 12.062 16.312 12.448Q16.146 12.833 15.833 13.146L13.167 15.812Q12.833 16.146 12.448 16.302Q12.062 16.458 11.583 16.458Q11.146 16.458 10.76 16.302Q10.375 16.146 10.062 15.812ZM10 19.771Q8 19.771 6.219 19Q4.438 18.229 3.104 16.896Q1.771 15.562 1 13.781Q0.229 12 0.229 10H2.042Q2.042 11.333 2.49 12.594Q2.938 13.854 3.708 14.854Q4.479 15.854 5.552 16.573Q6.625 17.292 7.854 17.625L6.104 15.854L7.396 14.562L12.354 19.521Q11.792 19.646 11.198 19.708Q10.604 19.771 10 19.771ZM17.958 10Q17.958 8.646 17.51 7.396Q17.062 6.146 16.292 5.146Q15.521 4.146 14.448 3.417Q13.375 2.688 12.146 2.354L13.917 4.146L12.625 5.438L7.667 0.479Q8.188 0.333 8.812 0.281Q9.438 0.229 10 0.229Q12.021 0.229 13.802 0.99Q15.583 1.75 16.917 3.083Q18.25 4.417 19.01 6.198Q19.771 7.979 19.771 10Z"/></svg>
